svg/fluentui-system-icons/ic_fluent_copy_select_20_filled.svg

<svg width="20" height="20" viewBox="0 0 20 20" fill="none" xmlns="http://www.w3.org/2000/svg">
<path d="M8 3C7.44772 3 7 3.44772 7 4V4.5C7 4.77614 6.77614 5 6.5 5C6.22386 5 6 4.77614 6 4.5V4C6 2.89543 6.89543 2 8 2H8.5C8.77614 2 9 2.22386 9 2.5C9 2.77614 8.77614 3 8.5 3H8ZM7 12C7 12.5523 7.44772 13 8 13H8.5C8.77614 13 9 13.2239 9 13.5C9 13.7761 8.77614 14 8.5 14H8C6.89543 14 6 13.1046 6 12V11.5C6 11.2239 6.22386 11 6.5 11C6.77614 11 7 11.2239 7 11.5V12ZM7 6.5C7 6.22386 6.77614 6 6.5 6C6.22386 6 6 6.22386 6 6.5V9.5C6 9.77614 6.22386 10 6.5 10C6.77614 10 7 9.77614 7 9.5V6.5ZM16 3C16.5523 3 17 3.44772 17 4V4.5C17 4.77614 17.2239 5 17.5 5C17.7761 5 18 4.77614 18 4.5V4C18 2.89543 17.1046 2 16 2H15.5C15.2239 2 15 2.22386 15 2.5C15 2.77614 15.2239 3 15.5 3H16ZM16 13C16.5523 13 17 12.5523 17 12V11.5C17 11.2239 17.2239 11 17.5 11C17.7761 11 18 11.2239 18 11.5V12C18 13.1046 17.1046 14 16 14H15.5C15.2239 14 15 13.7761 15 13.5C15 13.2239 15.2239 13 15.5 13H16ZM17.5 6C17.2239 6 17 6.22386 17 6.5V9.5C17 9.77614 17.2239 10 17.5 10C17.7761 10 18 9.77614 18 9.5V6.5C18 6.22386 17.7761 6 17.5 6ZM10.5 2C10.2239 2 10 2.22386 10 2.5C10 2.77614 10.2239 3 10.5 3H13.5C13.7761 3 14 2.77614 14 2.5C14 2.22386 13.7761 2 13.5 2H10.5ZM10 13.5C10 13.2239 10.2239 13 10.5 13H13.5C13.7761 13 14 13.2239 14 13.5C14 13.7761 13.7761 14 13.5 14H10.5C10.2239 14 10 13.7761 10 13.5ZM4 6H5V12.5C5 13.8807 6.11929 15 7.5 15H14V16C14 17.1046 13.1046 18 12 18H5.5C3.567 18 2 16.433 2 14.5V8C2 6.89543 2.89543 6 4 6Z" fill="#212121"/>
</svg>

<svg xmlns="http://www.w3.org/2000/svg" width="20" height="20"><path d="M8 3a1 1 0 0 0-1 1v.5a.5.5 0 0 1-1 0V4a2 2 0 0 1 2-2h.5a.5.5 0 0 1 0 1H8Zm-1 9a1 1 0 0 0 1 1h.5a.5.5 0 0 1 0 1H8a2 2 0 0 1-2-2v-.5a.5.5 0 0 1 1 0v.5Zm0-5.5a.5.5 0 0 0-1 0v3a.5.5 0 0 0 1 0v-3ZM16 3a1 1 0 0 1 1 1v.5a.5.5 0 0 0 1 0V4a2 2 0 0 0-2-2h-.5a.5.5 0 0 0 0 1h.5Zm0 10a1 1 0 0 0 1-1v-.5a.5.5 0 0 1 1 0v.5a2 2 0 0 1-2 2h-.5a.5.5 0 0 1 0-1h.5Zm1.5-7a.5.5 0 0 0-.5.5v3a.5.5 0 0 0 1 0v-3a.5.5 0 0 0-.5-.5Zm-7-4a.5.5 0 0 0 0 1h3a.5.5 0 0 0 0-1h-3ZM10 13.5a.5.5 0 0 1 .5-.5h3a.5.5 0 0 1 0 1h-3a.5.5 0 0 1-.5-.5ZM4 6h1v6.5A2.5 2.5 0 0 0 7.5 15H14v1a2 2 0 0 1-2 2H5.5A3.5 3.5 0 0 1 2 14.5V8a2 2 0 0 1 2-2Z"/></svg>
